X:412
%%topmargin 3cm
T:Jeanie's Doll is dressed again
C:James Scott Skinner
O:Scotland
B:Keith Norman MacDonald : "The Skye collection of the best reels & strathspeys extant" : 1887
Z:Ralph Palmer
R:Strathspey
R:Schottische
M:C
L:1/8
K:F
B A<cc>B A<F F2 | Bc B<G G2 | A<cc>B A<FF>A | G<E C>E {/E}F2 F :|
b | a/b/c' .d'/.c'/.=b (c'>f)(tf>.f) | (e/f/g) .a/.g/.^f (tg>.c)(tc>.b) | a/b/c' .d'/.c'/.=b c'>fa>f | g<e Lc>e {/e}f2 f>b |
La/.b/.c' d'/c'/=b c'>ff>f | Le/.f/.g b/g/^f g>cc>b | a/b/c' b/a/g n(3d'c'b (3agpf | n(3edc (3BApG F2- [A,CF] |]
